source/img/svg/boil.svg

<svg width="80" height="80" viewBox="0 0 80 80" fill="none" xmlns="http://www.w3.org/2000/svg">
<rect width="80" height="80" fill="#68B738"/>
<path d="M37.8609 26C36.2317 26 34.9646 27.3676 34.9646 29.0999C34.9646 30.8321 36.2317 32.1997 37.8609 32.1997C39.49 32.1997 40.7571 30.8321 40.7571 29.0999C40.7571 27.3676 39.49 26 37.8609 26ZM37.8609 27.1852C38.8564 27.1852 39.5805 28.0331 39.5805 29.0999C39.5805 30.1027 38.7931 31.0145 37.8609 31.0145C36.8653 31.0145 36.1412 30.1666 36.1412 29.0999C36.1412 28.097 36.9196 27.1852 37.8609 27.1852ZM27 50.89C27 52.0752 27.4073 53.0781 28.3576 53.8987C29.3532 54.7557 30.5298 54.6827 30.5298 54.6827H49.5363C50.3146 54.6827 51.3464 54.2998 52.161 53.224C53.0027 52.2211 52.9484 50.8535 52.9484 50.8535V33.5308C52.9484 33.0932 52.8398 32.9291 52.2062 32.9291C51.5727 32.9291 51.5184 33.2026 51.5184 33.5217V50.8444C51.5003 51.1453 51.446 51.9385 50.7762 52.5767C50.0431 53.2058 49.3281 53.1237 49.3281 53.1237C49.3281 53.1237 31.2267 53.1237 30.3216 53.0964C29.9777 53.0325 29.4165 52.9049 28.8735 52.1846C28.3667 51.4553 28.4662 50.5435 28.4662 50.5435V33.2208C28.4662 32.7559 28.2309 32.5826 27.7422 32.5826C27.2534 32.5826 27 32.7559 27 33.1661V50.89ZM43.2913 34.479C42.2052 34.7161 41.1191 34.8619 39.0375 36.8495C36.9558 38.8553 35.4172 38.7641 33.8785 38.6729C32.3399 38.5818 30.7108 37.123 30.4393 36.7583C30.1044 36.4027 29.5342 36.6398 29.3532 36.8768C29.1993 37.1139 29.1993 37.5242 29.4618 37.8797C30.7289 39.065 31.9055 39.9767 34.1682 40.159C36.4308 40.3778 38.603 39.3476 40.0511 37.8797C41.4992 36.421 42.2233 36.1475 43.3094 35.9651C45.9341 35.5457 47.4727 36.5851 48.3778 37.2415C49.3734 38.3356 49.6449 38.0256 49.9164 37.7156C50.4595 36.9954 49.6901 36.4392 48.8303 35.801C47.0202 34.6158 45.3005 34.1599 43.3094 34.5246L43.2913 34.479ZM34.2406 41.6816C33.064 41.6816 32.1589 42.6845 32.1589 43.9609C32.1589 45.2373 33.064 46.2402 34.2406 46.2402C35.4172 46.2402 36.3222 45.2373 36.3222 43.9609C36.3222 42.6845 35.4172 41.6816 34.2406 41.6816ZM46.0065 42.4657C44.4679 42.4657 43.2008 43.8333 43.2008 45.4744C43.2008 47.1155 44.4679 48.483 46.0065 48.483C47.5451 48.483 48.8122 47.1155 48.8122 45.4744C48.8122 43.8333 47.5451 42.4657 46.0065 42.4657ZM46.0065 43.9244C46.803 43.9244 47.4546 44.6265 47.4546 45.4744C47.4546 46.3405 46.803 47.0243 46.0065 47.0243C45.21 47.0243 44.5584 46.3223 44.5584 45.4744C44.5584 44.6082 45.21 43.9244 46.0065 43.9244Z" fill="white"/>
</svg>

<svg viewBox="0 0 80 80" fill="none" xmlns="http://www.w3.org/2000/svg">
    <path fill="#68B738" d="M0 0h80v80H0z"/>
    <path fill="#fff" d="M37.86 26c-1.63 0-2.9 1.37-2.9 3.1s1.27 3.1 2.9 3.1 2.9-1.37 2.9-3.1-1.27-3.1-2.9-3.1Zm0 1.19c1 0 1.72.84 1.72 1.91 0 1-.79 1.91-1.72 1.91-1 0-1.72-.84-1.72-1.91 0-1 .78-1.91 1.72-1.91ZM27 50.89c0 1.19.4 2.19 1.36 3 1 .87 2.17.8 2.17.8h19c.78 0 1.82-.39 2.63-1.47.84-1 .79-2.37.79-2.37V33.53c0-.44-.11-.6-.74-.6-.64 0-.7.27-.7.6v17.31a2.5 2.5 0 0 1-.73 1.74c-.74.63-1.45.54-1.45.54s-18.1 0-19-.02c-.35-.07-.91-.2-1.46-.92-.5-.72-.4-1.64-.4-1.64V33.22c0-.46-.24-.64-.73-.64s-.74.18-.74.59v17.72Zm16.3-16.41c-1.1.24-2.18.38-4.26 2.37-2.08 2-3.62 1.91-5.16 1.82-1.54-.09-3.17-1.55-3.44-1.91-.34-.36-.9-.12-1.09.12-.15.23-.15.64.11 1 1.27 1.18 2.45 2.1 4.7 2.28a7.45 7.45 0 0 0 5.9-2.28c1.44-1.46 2.16-1.73 3.25-1.91a6.27 6.27 0 0 1 5.07 1.27c1 1.1 1.26.79 1.54.48.54-.72-.23-1.28-1.09-1.92a7.19 7.19 0 0 0-5.52-1.28l-.02-.04Zm-9.06 7.2c-1.18 0-2.08 1-2.08 2.28 0 1.28.9 2.28 2.08 2.28 1.18 0 2.08-1 2.08-2.28 0-1.28-.9-2.28-2.08-2.28Zm11.77.79c-1.54 0-2.8 1.36-2.8 3 0 1.65 1.26 3.01 2.8 3.01 1.54 0 2.8-1.36 2.8-3 0-1.65-1.26-3.01-2.8-3.01Zm0 1.45c.8 0 1.44.7 1.44 1.55 0 .87-.65 1.55-1.44 1.55-.8 0-1.45-.7-1.45-1.55 0-.86.65-1.55 1.45-1.55Z"/>
</svg>
